; generated by PrusaSlicer 2.3.3 on 2021-11-17 at 08:42:06 UTC


;
;

;
;
; 

; external perimeters extrusion width = 0.45mm
; perimeters extrusion width = 0.45mm
; infill extrusion width = 0.45mm
; solid infill extrusion width = 0.45mm
; top infill extrusion width = 0.40mm
; support material extrusion width = 0.35mm
; first layer extrusion width = 0.42mm

M73 P0 R138
M201 X1250 Y1250 Z400 E5000 ; sets maximum accelerations, mm/sec^2
M203 X180 Y180 Z12 E80 ; sets maximum feedrates, mm/sec
M204 P1250 R1250 T1250 ; sets acceleration (P, T) and retract acceleration (R), mm/sec^2
M205 X8.00 Y8.00 Z2.00 E10.00 ; sets the jerk limits, mm/sec
M205 S0 T0 ; sets the minimum extruding and travel feed rate, mm/sec
M107
;TYPE:Custom
G90 ; use absolute coordinates
M83 ; extruder relative mode
M104 S170 ; set extruder temp for bed leveling
M140 S60 ; set bed temp
M109 R170 ; wait for bed leveling temp
M190 S60 ; wait for bed temp
G28 ; home all without mesh bed level
G29 ; mesh bed leveling 
M104 S215 ; set extruder temp
G92 E0.0
G1 Y-2.0 X179 F2400
G1 Z3 F720
M109 S215 ; wait for extruder temp

; intro line
G1 X170 F1000
G1 Z0.2 F720
G1 X110.0 E8.0 F900
M73 P0 R137
G1 X40.0 E10.0 F700
G92 E0.0

M221 S95 ; set flow
G21 ; set units to millimeters
G90 ; use absolute coordinates
M83 ; use relative distances for extrusion
M900 K0.2 ; Filament gcode LA 1.5
; ; Filament gcode LA 1.0
;LAYER_CHANGE
;Z:0.2
;HEIGHT:0.2
;BEFORE_LAYER_CHANGE
G92 E0.0
;0.2


G1 E-3.20000 F4200.000
G1 Z0.200 F9000.000
;AFTER_LAYER_CHANGE
;0.2
G1 Z0.400
G1 X43.688 Y6.659
G1 Z0.200
G1 E3.20000 F2400.000
M204 S800
;TYPE:Skirt
;WIDTH:0.42
G1 F1200.000
G1 X44.593 Y6.840 E0.02896
G1 X45.359 Y7.349 E0.02884
G1 X172.645 Y134.635 E5.64405
G1 X173.035 Y135.149 E0.02024
G1 X173.295 Y135.849 E0.02343
G1 X173.324 Y136.600 E0.02355
G1 X173.117 Y137.322 E0.02355
G1 X172.698 Y137.941 E0.02343
G1 X137.994 Y172.647 E1.53890
G1 X137.482 Y173.035 E0.02012
G1 X136.767 Y173.298 E0.02390
G1 X136.001 Y173.320 E0.02402
G1 X135.271 Y173.099 E0.02390
G1 X134.649 Y172.659 E0.02390
G1 X7.355 Y45.365 E5.64440
G1 X6.965 Y44.851 E0.02024
G1 X6.703 Y44.139 E0.02378
G1 X6.678 Y43.385 E0.02367
G1 X6.893 Y42.657 E0.02378
G1 X7.323 Y42.037 E0.02367
G1 X42.028 Y7.331 E1.53890
G1 X42.792 Y6.833 E0.02860
G1 X43.629 Y6.671 E0.02672
M204 S1250
; printing object podlozkaHorni.stl id:0 copy 0
G1 E-2.24000 F4200.000
;WIPE_START
G1 F7200.000
G1 X44.593 Y6.840 E-0.54268
G1 X45.148 Y7.209 E-0.36932
;WIPE_END
G1 E-0.04800 F4200.000
G1 Z0.400 F9000.000
G1 X50.030 Y37.902
G1 Z0.200
G1 E3.20000 F2400.000
M204 S800
;TYPE:Support material
G1 F1200.000
G1 X50.030 Y33.938 E0.12428
G1 X50.784 Y33.184 E0.03344
G1 X50.784 Y38.811 E0.17642
G1 X51.538 Y39.013 E0.02448
G1 X51.538 Y32.430 E0.20640
G1 X52.292 Y31.676 E0.03344
G1 X52.292 Y39.215 E0.23638
G1 X53.046 Y39.417 E0.02448
G1 X53.046 Y31.849 E0.23729
G1 X53.800 Y32.051 E0.02448
G1 X53.800 Y39.619 E0.23729
G1 X54.500 Y39.806 E0.02270
G1 X54.555 Y39.751 E0.00244
G1 X54.555 Y32.253 E0.23511
G1 X55.309 Y32.455 E0.02448
G1 X55.309 Y38.997 E0.20512
G1 X56.063 Y38.243 E0.03344
G1 X56.063 Y32.657 E0.17514
G1 X56.392 Y32.745 E0.01067
G1 X56.817 Y34.333 E0.05154
G1 X56.817 Y37.729 E0.10648
M204 S1250
G1 E-2.24000 F4200.000
;WIPE_START
G1 F7200.000
G1 X56.817 Y36.083 E-0.91200
;WIPE_END
G1 E-0.04800 F4200.000
G1 Z0.400 F9000.000
G1 X39.471 Y55.074
G1 Z0.200
G1 E3.20000 F2400.000
M204 S800
G1 F1200.000
G1 X39.471 Y53.250 E0.05722
G1 X38.717 Y50.435 E0.09136
G1 X38.717 Y55.589 E0.16159
G1 X37.963 Y56.343 E0.03344
G1 X37.963 Y50.222 E0.19192
G1 X37.209 Y50.020 E0.02448
G1 X37.209 Y57.097 E0.22191
G1 X36.822 Y57.484 E0.01716
G1 X36.455 Y57.386 E0.01192
G1 X36.455 Y49.818 E0.23729
G1 X35.701 Y49.615 E0.02448
G1 X35.701 Y57.183 E0.23729
G1 X34.946 Y56.981 E0.02448
G1 X34.946 Y49.413 E0.23729
G1 X34.637 Y49.331 E0.01004
G1 X34.192 Y49.775 E0.01973
G1 X34.192 Y56.779 E0.21960
G1 X33.438 Y56.577 E0.02448
G1 X33.438 Y50.530 E0.18962
G1 X32.684 Y51.284 E0.03344
G1 X32.684 Y56.163 E0.15298
G1 X31.930 Y53.348 E0.09136
G1 X31.930 Y51.798 E0.04861
M204 S1250
G1 E-2.24000 F4200.000
;WIPE_START
G1 F7200.000
G1 X31.930 Y53.348 E-0.85915
G1 X31.954 Y53.440 E-0.05285
;WIPE_END
G1 E-0.04800 F4200.000
G1 Z0.400 F9000.000
G1 X123.183 Y146.323
G1 Z0.200
G1 E3.20000 F2400.000
M204 S800
G1 F1200.000
G1 X123.183 Y142.511 E0.11951
G1 X123.937 Y141.757 E0.03344
G1 X123.937 Y147.343 E0.17514
G1 X124.691 Y147.545 E0.02448
G1 X124.691 Y141.003 E0.20512
G1 X125.445 Y140.249 E0.03344
G1 X125.445 Y147.747 E0.23511
G1 X126.200 Y147.949 E0.02448
G1 X126.200 Y140.381 E0.23729
G1 X126.954 Y140.583 E0.02448
G1 X126.954 Y148.151 E0.23729
G1 X127.685 Y148.347 E0.02374
G1 X127.708 Y148.324 E0.00101
G1 X127.708 Y140.785 E0.23638
G1 X128.462 Y140.987 E0.02448
G1 X128.462 Y147.570 E0.20640
G1 X129.216 Y146.816 E0.03344
G1 X129.216 Y141.189 E0.17642
G1 X129.577 Y141.286 E0.01171
G1 X129.970 Y142.754 E0.04764
G1 X129.970 Y146.302 E0.11124
M204 S1250
G1 E-2.24000 F4200.000
;WIPE_START
G1 F7200.000
G1 X129.970 Y144.656 E-0.91200
;WIPE_END
G1 E-0.04800 F4200.000
G1 Z0.400 F9000.000
G1 X140.529 Y124.926
G1 Z0.200
G1 E3.20000 F2400.000
M204 S800
G1 F1200.000
G1 X140.529 Y126.750 E0.05722
G1 X141.283 Y129.565 E0.09136
G1 X141.283 Y124.411 E0.16159
G1 X142.037 Y123.657 E0.03344
G1 X142.037 Y129.778 E0.19192
G1 X142.791 Y129.980 E0.02448
G1 X142.791 Y122.903 E0.22191
G1 X143.178 Y122.516 E0.01716
G1 X143.545 Y122.614 E0.01192
G1 X143.545 Y130.182 E0.23729
G1 X144.299 Y130.385 E0.02448
G1 X144.299 Y122.817 E0.23729
G1 X145.054 Y123.019 E0.02448
G1 X145.054 Y130.587 E0.23729
G1 X145.363 Y130.669 E0.01004
G1 X145.808 Y130.225 E0.01973
G1 X145.808 Y123.221 E0.21960
G1 X146.562 Y123.423 E0.02448
G1 X146.562 Y129.470 E0.18962
G1 X147.316 Y128.716 E0.03344
G1 X147.316 Y123.837 E0.15298
G1 X148.070 Y126.652 E0.09136
G1 X148.070 Y128.202 E0.04861
M204 S1250
G1 E-2.24000 F4200.000
;WIPE_START
G1 F7200.000
G1 X148.070 Y126.652 E-0.85915
G1 X148.046 Y126.560 E-0.05285
;WIPE_END
G1 E-0.04800 F4200.000
G1 Z0.400 F9000.000
G1 X89.062 Y102.667
G1 Z0.200
G1 E3.20000 F2400.000
M204 S800
;TYPE:Perimeter
G1 F1200.000
G1 X88.992 Y102.829 E0.00553
G1 X88.430 Y103.779 E0.03461
G1 X87.754 Y104.651 E0.03461
G1 X86.973 Y105.431 E0.03461
G1 X86.101 Y106.108 E0.03461
G1 X85.151 Y106.670 E0.03461
G1 X84.138 Y107.108 E0.03461
G1 X83.078 Y107.416 E0.03461
G1 X82.020 Y107.583 E0.03360
G1 X80.886 Y107.623 E0.03557
G1 X79.786 Y107.519 E0.03464
G1 X78.709 Y107.279 E0.03461
G1 X77.671 Y106.905 E0.03461
G1 X76.687 Y106.404 E0.03461
G1 X75.775 Y105.783 E0.03461
G1 X74.947 Y105.053 E0.03461
G1 X74.217 Y104.225 E0.03461
G1 X73.596 Y103.313 E0.03461
G1 X73.095 Y102.329 E0.03461
G1 X72.721 Y101.291 E0.03461
G1 X72.481 Y100.214 E0.03461
G1 X72.377 Y99.115 E0.03461
G1 X72.412 Y98.012 E0.03461
G1 X72.584 Y96.922 E0.03461
G1 X72.892 Y95.862 E0.03461
G1 X73.330 Y94.849 E0.03461
G1 X73.892 Y93.899 E0.03461
G1 X74.569 Y93.027 E0.03461
G1 X75.349 Y92.246 E0.03461
G1 X76.221 Y91.570 E0.03461
G1 X77.171 Y91.008 E0.03461
G1 X78.184 Y90.570 E0.03461
G1 X79.244 Y90.262 E0.03461
G1 X80.334 Y90.089 E0.03461
G1 X81.405 Y90.056 E0.03360
G1 X82.535 Y90.158 E0.03557
G1 X83.613 Y90.399 E0.03464
G1 X84.652 Y90.773 E0.03461
G1 X85.635 Y91.274 E0.03461
G1 X86.230 Y91.678 E0.02255
G1 X86.548 Y91.894 E0.01205
G1 X87.376 Y92.624 E0.03461
G1 X88.106 Y93.452 E0.03461
G1 X88.726 Y94.365 E0.03461
G1 X89.227 Y95.348 E0.03461
G1 X89.601 Y96.387 E0.03461
G1 X89.685 Y96.762 E0.01205
G1 X89.842 Y97.464 E0.02255
G1 X89.945 Y98.563 E0.03461
G1 X89.911 Y99.666 E0.03461
G1 X89.738 Y100.756 E0.03461
G1 X89.430 Y101.816 E0.03461
G1 X89.086 Y102.612 E0.02719
M204 S1250
G1 X88.655 Y102.657 F9000.000
M204 S800
;TYPE:External perimeter
G1 F1200.000
G1 X88.118 Y103.566 E0.03312
G1 X87.470 Y104.401 E0.03312
G1 X86.723 Y105.148 E0.03312
G1 X85.889 Y105.795 E0.03312
G1 X84.980 Y106.333 E0.03312
G1 X84.010 Y106.752 E0.03312
G1 X82.996 Y107.047 E0.03312
G1 X81.984 Y107.207 E0.03214
G1 X80.897 Y107.246 E0.03408
G1 X79.845 Y107.146 E0.03313
G1 X78.815 Y106.916 E0.03312
G1 X77.821 Y106.558 E0.03312
G1 X76.880 Y106.078 E0.03312
G1 X76.006 Y105.485 E0.03312
G1 X75.214 Y104.786 E0.03312
G1 X74.515 Y103.994 E0.03312
G1 X73.922 Y103.120 E0.03312
G1 X73.442 Y102.179 E0.03312
G1 X73.084 Y101.185 E0.03312
G1 X72.854 Y100.155 E0.03312
G1 X72.755 Y99.103 E0.03312
G1 X72.788 Y98.047 E0.03312
G1 X72.953 Y97.004 E0.03312
G1 X73.248 Y95.990 E0.03312
G1 X73.667 Y95.020 E0.03312
G1 X74.205 Y94.111 E0.03312
G1 X74.852 Y93.277 E0.03312
G1 X75.599 Y92.530 E0.03312
G1 X76.434 Y91.882 E0.03312
G1 X77.343 Y91.345 E0.03312
G1 X78.312 Y90.925 E0.03312
G1 X79.326 Y90.631 E0.03312
G1 X80.370 Y90.465 E0.03312
G1 X81.394 Y90.433 E0.03214
G1 X82.477 Y90.531 E0.03408
G1 X83.508 Y90.762 E0.03313
G1 X84.502 Y91.120 E0.03312
G1 X85.443 Y91.599 E0.03312
G1 X86.018 Y91.990 E0.02181
G1 X86.316 Y92.193 E0.01131
G1 X87.109 Y92.891 E0.03312
G1 X87.807 Y93.684 E0.03312
G1 X88.401 Y94.557 E0.03312
G1 X88.880 Y95.498 E0.03312
G1 X89.238 Y96.492 E0.03312
G1 X89.317 Y96.844 E0.01131
G1 X89.468 Y97.523 E0.02181
G1 X89.568 Y98.575 E0.03312
G1 X89.535 Y99.630 E0.03312
G1 X89.369 Y100.674 E0.03312
G1 X89.075 Y101.688 E0.03312
G1 X88.679 Y102.602 E0.03124
M204 S1250
G1 X88.873 Y102.993 F9000.000
G1 E-2.24000 F4200.000
;WIPE_START
G1 F7200.000
G1 X88.118 Y103.566 E-0.61833
G1 X87.793 Y103.985 E-0.29366
;WIPE_END
G1 E-0.04800 F4200.000
G1 Z0.400 F9000.000
G1 X95.348 Y89.227
G1 Z0.200
G1 E3.20000 F2400.000
M204 S800
;TYPE:Perimeter
G1 F1200.000
G1 X94.365 Y88.726 E0.03461
G1 X93.452 Y88.106 E0.03461
G1 X92.624 Y87.376 E0.03461
G1 X91.894 Y86.548 E0.03461
G1 X91.274 Y85.635 E0.03461
G1 X90.773 Y84.652 E0.03461
G1 X90.399 Y83.613 E0.03461
G1 X90.158 Y82.536 E0.03461
G1 X90.055 Y81.437 E0.03461
G1 X90.089 Y80.334 E0.03461
G1 X90.262 Y79.244 E0.03461
G1 X90.570 Y78.184 E0.03461
G1 X91.008 Y77.171 E0.03461
G1 X91.570 Y76.221 E0.03461
G1 X92.246 Y75.349 E0.03461
G1 X93.027 Y74.569 E0.03461
G1 X93.899 Y73.892 E0.03461
G1 X94.849 Y73.330 E0.03461
G1 X95.862 Y72.892 E0.03461
G1 X96.922 Y72.584 E0.03461
G1 X98.012 Y72.412 E0.03461
G1 X99.083 Y72.378 E0.03360
G1 X100.213 Y72.480 E0.03557
G1 X101.291 Y72.721 E0.03464
G1 X102.329 Y73.095 E0.03461
G1 X103.313 Y73.596 E0.03461
G1 X104.225 Y74.217 E0.03461
G1 X105.053 Y74.947 E0.03461
G1 X105.783 Y75.775 E0.03461
G1 X106.404 Y76.687 E0.03461
G1 X106.905 Y77.671 E0.03461
G1 X107.279 Y78.709 E0.03461
G1 X107.519 Y79.786 E0.03461
G1 X107.623 Y80.885 E0.03461
G1 X107.588 Y81.988 E0.03461
G1 X107.416 Y83.078 E0.03461
G1 X107.108 Y84.138 E0.03461
G1 X106.670 Y85.151 E0.03461
G1 X106.108 Y86.101 E0.03461
G1 X105.431 Y86.973 E0.03461
G1 X104.651 Y87.754 E0.03461
G1 X103.779 Y88.430 E0.03461
G1 X102.829 Y88.992 E0.03461
G1 X101.816 Y89.430 E0.03461
G1 X100.756 Y89.738 E0.03461
G1 X99.666 Y89.911 E0.03461
G1 X98.563 Y89.945 E0.03461
G1 X97.464 Y89.842 E0.03461
G1 X96.387 Y89.601 E0.03461
G1 X95.405 Y89.247 E0.03272
M204 S1250
G1 X95.533 Y88.893 F9000.000
M204 S800
;TYPE:External perimeter
G1 F1200.000
G1 X94.557 Y88.401 E0.03425
G1 X93.684 Y87.807 E0.03312
G1 X92.891 Y87.109 E0.03312
G1 X92.193 Y86.316 E0.03312
G1 X91.599 Y85.443 E0.03312
G1 X91.120 Y84.502 E0.03312
G1 X90.762 Y83.508 E0.03312
G1 X90.683 Y83.156 E0.01131
G1 X90.532 Y82.477 E0.02181
G1 X90.432 Y81.425 E0.03312
G1 X90.465 Y80.370 E0.03312
G1 X90.574 Y79.683 E0.02181
G1 X90.631 Y79.326 E0.01131
G1 X90.925 Y78.312 E0.03312
G1 X91.345 Y77.343 E0.03312
G1 X91.882 Y76.434 E0.03312
G1 X92.530 Y75.599 E0.03312
M73 P0 R136
G1 X93.277 Y74.852 E0.03312
G1 X94.111 Y74.205 E0.03312
G1 X95.020 Y73.667 E0.03312
G1 X95.990 Y73.248 E0.03312
G1 X97.004 Y72.953 E0.03312
G1 X98.047 Y72.788 E0.03312
G1 X99.072 Y72.755 E0.03214
G1 X100.154 Y72.854 E0.03408
G1 X101.185 Y73.084 E0.03313
G1 X102.179 Y73.442 E0.03312
G1 X103.120 Y73.922 E0.03312
G1 X103.994 Y74.515 E0.03312
G1 X104.786 Y75.214 E0.03312
G1 X105.485 Y76.006 E0.03312
G1 X106.078 Y76.880 E0.03312
G1 X106.558 Y77.821 E0.03312
G1 X106.916 Y78.815 E0.03312
G1 X107.146 Y79.845 E0.03312
G1 X107.245 Y80.897 E0.03312
G1 X107.212 Y81.953 E0.03312
G1 X107.047 Y82.996 E0.03312
G1 X106.752 Y84.010 E0.03312
G1 X106.333 Y84.980 E0.03312
G1 X105.795 Y85.889 E0.03312
G1 X105.148 Y86.723 E0.03312
G1 X104.401 Y87.470 E0.03312
G1 X103.566 Y88.118 E0.03312
G1 X102.657 Y88.655 E0.03312
G1 X101.688 Y89.075 E0.03312
G1 X100.674 Y89.369 E0.03312
G1 X99.630 Y89.535 E0.03312
G1 X98.575 Y89.568 E0.03312
G1 X97.523 Y89.468 E0.03312
G1 X96.492 Y89.238 E0.03312
G1 X95.589 Y88.913 E0.03010
M204 S1250
G1 X95.212 Y89.132 F9000.000
G1 E-2.24000 F4200.000
;WIPE_START
G1 F7200.000
G1 X94.557 Y88.401 E-0.63830
G1 X94.149 Y88.123 E-0.27370
;WIPE_END
G1 E-0.04800 F4200.000
G1 Z0.400 F9000.000
G1 X41.196 Y54.872
G1 Z0.200
G1 E3.20000 F2400.000
M204 S800
;TYPE:Perimeter
G1 F1200.000
G1 X37.194 Y58.873 E0.17743
G1 X31.728 Y57.409 E0.17743
G1 X30.264 Y51.943 E0.17743
G1 X34.265 Y47.941 E0.17743
G1 X39.731 Y49.406 E0.17743
G1 X41.180 Y54.814 E0.17555
M204 S1250
G1 X40.775 Y54.759 F9000.000
M204 S800
;TYPE:External perimeter
G1 F1200.000
G1 X37.081 Y58.453 E0.16378
G1 X32.036 Y57.101 E0.16378
G1 X30.684 Y52.055 E0.16378
G1 X34.378 Y48.362 E0.16378
G1 X39.423 Y49.714 E0.16378
G1 X40.759 Y54.701 E0.16190
M204 S1250
G1 X41.058 Y55.042 F9000.000
G1 E-2.24000 F4200.000
;WIPE_START
G1 F7200.000
G1 X39.607 Y55.876 E-0.91200
;WIPE_END
G1 E-0.04800 F4200.000
G1 Z0.400 F9000.000
G1 X49.406 Y39.731
G1 Z0.200
G1 E3.20000 F2400.000
M204 S800
;TYPE:Perimeter
G1 F1200.000
G1 X47.941 Y34.265 E0.17743
G1 X51.943 Y30.264 E0.17743
G1 X57.409 Y31.728 E0.17743
G1 X58.873 Y37.194 E0.17743
G1 X54.872 Y41.196 E0.17743
G1 X49.464 Y39.746 E0.17555
M204 S1250
G1 X49.714 Y39.423 F9000.000
M204 S800
;TYPE:External perimeter
G1 F1200.000
G1 X48.362 Y34.378 E0.16378
G1 X52.055 Y30.684 E0.16378
G1 X57.101 Y32.036 E0.16378
G1 X58.453 Y37.081 E0.16378
G1 X54.759 Y40.775 E0.16378
G1 X49.772 Y39.439 E0.16190
M204 S1250
G1 X49.327 Y39.527 F9000.000
G1 E-2.24000 F4200.000
;WIPE_START
G1 F7200.000
G1 X49.330 Y37.853 E-0.91200
;WIPE_END
G1 E-0.04800 F4200.000
G1 Z0.400 F9000.000
G1 X43.124 Y24.828
G1 Z0.200
G1 E3.20000 F2400.000
M204 S800
;TYPE:Perimeter
G1 F1200.000
G1 X42.728 Y25.000 E0.01354
G1 X42.313 Y25.120 E0.01354
G1 X41.887 Y25.188 E0.01354
G1 X41.455 Y25.201 E0.01354
G1 X41.025 Y25.160 E0.01354
G1 X40.604 Y25.066 E0.01354
G1 X40.198 Y24.920 E0.01354
G1 X39.813 Y24.724 E0.01354
G1 X39.456 Y24.481 E0.01354
G1 X39.132 Y24.196 E0.01354
G1 X38.846 Y23.872 E0.01354
G1 X38.603 Y23.515 E0.01354
G1 X38.407 Y23.130 E0.01354
G1 X38.261 Y22.724 E0.01354
G1 X38.167 Y22.302 E0.01354
G1 X38.126 Y21.872 E0.01354
G1 X38.140 Y21.441 E0.01354
G1 X38.207 Y21.014 E0.01354
G1 X38.328 Y20.599 E0.01354
G1 X38.499 Y20.203 E0.01354
G1 X38.719 Y19.831 E0.01354
G1 X38.984 Y19.490 E0.01354
G1 X39.289 Y19.185 E0.01354
G1 X39.630 Y18.920 E0.01354
G1 X40.002 Y18.700 E0.01354
G1 X40.398 Y18.529 E0.01354
G1 X40.813 Y18.408 E0.01354
G1 X41.240 Y18.341 E0.01354
G1 X41.651 Y18.328 E0.01290
G1 X42.099 Y18.367 E0.01412
G1 X42.523 Y18.462 E0.01360
G1 X42.929 Y18.608 E0.01354
G1 X43.314 Y18.804 E0.01354
G1 X43.671 Y19.047 E0.01354
G1 X43.995 Y19.333 E0.01354
G1 X44.280 Y19.657 E0.01354
G1 X44.523 Y20.014 E0.01354
G1 X44.719 Y20.399 E0.01354
G1 X44.865 Y20.805 E0.01354
G1 X44.959 Y21.226 E0.01354
G1 X45.000 Y21.656 E0.01354
G1 X44.987 Y22.088 E0.01354
G1 X44.919 Y22.514 E0.01354
G1 X44.799 Y22.929 E0.01354
G1 X44.627 Y23.325 E0.01354
G1 X44.407 Y23.697 E0.01354
G1 X44.143 Y24.038 E0.01354
G1 X43.837 Y24.344 E0.01354
G1 X43.496 Y24.608 E0.01354
G1 X43.176 Y24.798 E0.01166
M204 S1250
G1 X42.984 Y24.473 F9000.000
M204 S800
;TYPE:External perimeter
G1 F1200.000
G1 X42.600 Y24.644 E0.01318
G1 X42.231 Y24.751 E0.01205
G1 X41.851 Y24.811 E0.01205
G1 X41.467 Y24.823 E0.01205
G1 X41.084 Y24.787 E0.01205
G1 X40.709 Y24.703 E0.01205
G1 X40.348 Y24.573 E0.01205
G1 X40.005 Y24.399 E0.01205
G1 X39.687 Y24.183 E0.01205
G1 X39.399 Y23.929 E0.01205
G1 X39.145 Y23.640 E0.01205
G1 X38.929 Y23.322 E0.01205
G1 X38.754 Y22.980 E0.01205
