; generated by PrusaSlicer 2.3.3 on 2021-11-18 at 12:29:03 UTC


;
;

;
;
; 

; external perimeters extrusion width = 0.45mm
; perimeters extrusion width = 0.45mm
; infill extrusion width = 0.45mm
; solid infill extrusion width = 0.45mm
; top infill extrusion width = 0.40mm
; first layer extrusion width = 0.42mm

M73 P0 R15
M201 X1250 Y1250 Z400 E5000 ; sets maximum accelerations, mm/sec^2
M203 X180 Y180 Z12 E80 ; sets maximum feedrates, mm/sec
M204 P1250 R1250 T1250 ; sets acceleration (P, T) and retract acceleration (R), mm/sec^2
M205 X8.00 Y8.00 Z2.00 E10.00 ; sets the jerk limits, mm/sec
M205 S0 T0 ; sets the minimum extruding and travel feed rate, mm/sec
M107
;TYPE:Custom
G90 ; use absolute coordinates
M83 ; extruder relative mode
M104 S170 ; set extruder temp for bed leveling
M140 S60 ; set bed temp
M109 R170 ; wait for bed leveling temp
M190 S60 ; wait for bed temp
G28 ; home all without mesh bed level
G29 ; mesh bed leveling 
M104 S215 ; set extruder temp
G92 E0.0
G1 Y-2.0 X179 F2400
G1 Z3 F720
M109 S215 ; wait for extruder temp

; intro line
G1 X170 F1000
G1 Z0.2 F720
G1 X110.0 E8.0 F900
M73 P1 R15
G1 X40.0 E10.0 F700
G92 E0.0

M221 S95 ; set flow
G21 ; set units to millimeters
G90 ; use absolute coordinates
M83 ; use relative distances for extrusion
M900 K0.2 ; Filament gcode LA 1.5
; ; Filament gcode LA 1.0
;LAYER_CHANGE
;Z:0.2
;HEIGHT:0.2
;BEFORE_LAYER_CHANGE
G92 E0.0
;0.2


G1 E-3.20000 F4200.000
G1 Z0.200 F9000.000
;AFTER_LAYER_CHANGE
;0.2
G1 Z0.400
G1 X82.538 Y82.427
G1 Z0.200
G1 E3.20000 F2400.000
M204 S800
;TYPE:Skirt
;WIDTH:0.42
G1 F1200.000
G1 X84.115 Y81.146 E0.06369
G1 X85.906 Y80.189 E0.06369
G1 X86.929 Y79.822 E0.03407
G1 X87.980 Y79.563 E0.03393
G1 X90.007 Y79.369 E0.06383
G1 X91.109 Y79.427 E0.03462
G1 X92.178 Y79.594 E0.03393
G1 X94.118 Y80.199 E0.06369
G1 X95.907 Y81.161 E0.06369
G1 X96.775 Y81.807 E0.03393
G1 X97.573 Y82.538 E0.03393
G1 X98.854 Y84.115 E0.06370
G1 X99.811 Y85.907 E0.06369
G1 X100.177 Y86.925 E0.03393
G1 X100.437 Y87.980 E0.03407
G1 X100.631 Y90.002 E0.06370
G1 X100.437 Y92.024 E0.06369
G1 X100.177 Y93.075 E0.03393
G1 X99.803 Y94.114 E0.03462
G1 X98.839 Y95.907 E0.06383
G1 X98.193 Y96.775 E0.03393
G1 X97.462 Y97.573 E0.03393
M73 P2 R15
G1 X95.885 Y98.854 E0.06369
G1 X94.094 Y99.811 E0.06369
G1 X93.075 Y100.177 E0.03393
G1 X92.020 Y100.437 E0.03407
G1 X89.998 Y100.631 E0.06369
G1 X87.976 Y100.437 E0.06369
G1 X86.925 Y100.177 E0.03393
G1 X85.886 Y99.803 E0.03462
G1 X84.093 Y98.839 E0.06383
G1 X83.225 Y98.193 E0.03393
G1 X82.427 Y97.462 E0.03393
G1 X81.146 Y95.885 E0.06369
G1 X80.189 Y94.093 E0.06370
G1 X79.823 Y93.075 E0.03393
G1 X79.563 Y92.020 E0.03407
G1 X79.369 Y89.998 E0.06369
G1 X79.563 Y87.976 E0.06369
G1 X79.823 Y86.925 E0.03394
G1 X80.197 Y85.886 E0.03461
G1 X81.161 Y84.093 E0.06383
G1 X81.807 Y83.225 E0.03394
G1 X82.498 Y82.472 E0.03205
M204 S1250
G1 E-2.24000 F4200.000
;WIPE_START
G1 F7200.000
G1 X83.771 Y81.428 E-0.91200
;WIPE_END
G1 E-0.04800 F4200.000
G1 Z0.400 F9000.000
G1 X84.325 Y81.459
G1 Z0.200
G1 E3.20000 F2400.000
M204 S800
G1 F1200.000
G1 X86.049 Y80.538 E0.06128
G1 X87.036 Y80.184 E0.03288
G1 X88.054 Y79.932 E0.03288
G1 X90.004 Y79.746 E0.06141
G1 X91.950 Y79.933 E0.06129
G1 X92.968 Y80.185 E0.03287
G1 X93.970 Y80.545 E0.03340
G1 X95.695 Y81.473 E0.06141
G1 X96.536 Y82.099 E0.03288
G1 X97.306 Y82.805 E0.03275
G1 X98.541 Y84.325 E0.06141
G1 X99.462 Y86.049 E0.06128
G1 X99.816 Y87.036 E0.03288
G1 X100.068 Y88.054 E0.03288
G1 X100.254 Y90.000 E0.06128
G1 X100.068 Y91.946 E0.06128
G1 X99.817 Y92.964 E0.03288
G1 X99.462 Y93.951 E0.03288
G1 X98.541 Y95.674 E0.06128
G1 X97.306 Y97.195 E0.06142
G1 X96.536 Y97.901 E0.03275
G1 X95.695 Y98.527 E0.03288
G1 X93.970 Y99.454 E0.06141
G1 X92.968 Y99.815 E0.03340
G1 X91.950 Y100.067 E0.03288
G1 X90.000 Y100.254 E0.06141
G1 X88.055 Y100.068 E0.06128
G1 X87.036 Y99.817 E0.03288
G1 X86.049 Y99.462 E0.03288
G1 X84.326 Y98.541 E0.06128
G1 X82.805 Y97.306 E0.06142
G1 X82.099 Y96.536 E0.03275
G1 X81.473 Y95.695 E0.03288
G1 X80.546 Y93.970 E0.06141
G1 X80.185 Y92.968 E0.03340
G1 X79.933 Y91.950 E0.03288
G1 X79.746 Y90.000 E0.06141
G1 X79.933 Y88.050 E0.06142
G1 X80.185 Y87.032 E0.03288
G1 X80.545 Y86.030 E0.03339
G1 X81.473 Y84.305 E0.06141
G1 X82.099 Y83.464 E0.03289
G1 X82.805 Y82.694 E0.03275
G1 X84.279 Y81.497 E0.05953
M204 S1250
G1 X84.515 Y81.788 F9000.000
M204 S800
G1 F1200.000
G1 X86.192 Y80.887 E0.05968
G1 X87.143 Y80.545 E0.03170
G1 X88.129 Y80.302 E0.03182
G1 X90.006 Y80.123 E0.05912
G1 X91.030 Y80.177 E0.03218
G1 X92.029 Y80.334 E0.03170
G1 X93.826 Y80.894 E0.05900
G1 X95.483 Y81.785 E0.05900
G1 X96.294 Y82.388 E0.03170
G1 X97.039 Y83.072 E0.03170
G1 X98.226 Y84.532 E0.05900
G1 X99.113 Y86.192 E0.05900
G1 X99.455 Y87.143 E0.03170
G1 X99.698 Y88.129 E0.03182
G1 X99.877 Y90.002 E0.05900
G1 X99.697 Y91.875 E0.05901
G1 X99.455 Y92.856 E0.03169
G1 X99.106 Y93.826 E0.03230
G1 X98.215 Y95.483 E0.05900
G1 X97.612 Y96.294 E0.03170
G1 X96.928 Y97.039 E0.03170
G1 X95.468 Y98.226 E0.05900
G1 X93.808 Y99.113 E0.05900
G1 X92.857 Y99.455 E0.03170
G1 X91.871 Y99.698 E0.03182
G1 X89.998 Y99.877 E0.05900
G1 X88.125 Y99.697 E0.05901
G1 X87.144 Y99.455 E0.03169
G1 X86.174 Y99.106 E0.03230
G1 X84.517 Y98.215 E0.05900
G1 X83.703 Y97.609 E0.03182
G1 X82.961 Y96.928 E0.03158
G1 X81.774 Y95.468 E0.05900
G1 X80.887 Y93.808 E0.05900
G1 X80.544 Y92.853 E0.03182
G1 X80.302 Y91.871 E0.03170
G1 X80.123 Y89.998 E0.05900
G1 X80.303 Y88.125 E0.05901
G1 X80.545 Y87.143 E0.03170
G1 X80.894 Y86.174 E0.03229
G1 X81.785 Y84.517 E0.05900
G1 X82.388 Y83.706 E0.03170
G1 X83.072 Y82.961 E0.03170
G1 X84.469 Y81.826 E0.05643
M204 S1250
; printing object tyckaStred.stl id:0 copy 0
G1 E-2.24000 F4200.000
;WIPE_START
G1 F7200.000
G1 X85.914 Y81.038 E-0.91200
;WIPE_END
G1 E-0.04800 F4200.000
G1 Z0.400 F9000.000
G1 X86.283 Y84.411
G1 Z0.200
G1 E3.20000 F2400.000
M204 S800
;TYPE:Perimeter
G1 F1200.000
G1 X86.890 Y84.052 E0.02213
G1 X87.532 Y83.758 E0.02213
G1 X88.057 Y83.575 E0.01743
G1 X88.742 Y83.407 E0.02213
G1 X89.441 Y83.311 E0.02211
G1 X90.010 Y83.288 E0.01785
G1 X90.701 Y83.325 E0.02171
G1 X91.399 Y83.435 E0.02213
G1 X91.937 Y83.573 E0.01743
G1 X92.601 Y83.812 E0.02213
G1 X93.234 Y84.118 E0.02203
M73 P3 R15
G1 X93.831 Y84.488 E0.02203
G1 X94.388 Y84.921 E0.02213
G1 X94.794 Y85.301 E0.01743
G1 X95.260 Y85.831 E0.02213
G1 X95.669 Y86.406 E0.02213
G1 X95.947 Y86.888 E0.01743
G1 X96.242 Y87.532 E0.02222
G1 X96.425 Y88.057 E0.01743
G1 X96.594 Y88.745 E0.02222
G1 X96.675 Y89.295 E0.01743
G1 X96.712 Y90.000 E0.02213
G1 X96.675 Y90.705 E0.02213
G1 X96.594 Y91.255 E0.01743
G1 X96.425 Y91.943 E0.02222
G1 X96.242 Y92.468 E0.01743
G1 X95.948 Y93.110 E0.02213
G1 X95.589 Y93.717 E0.02213
G1 X95.262 Y94.167 E0.01743
G1 X94.794 Y94.699 E0.02222
G1 X94.388 Y95.079 E0.01743
G1 X93.831 Y95.512 E0.02213
G1 X93.234 Y95.882 E0.02203
G1 X92.601 Y96.188 E0.02203
G1 X91.937 Y96.427 E0.02213
G1 X91.399 Y96.565 E0.01743
G1 X90.702 Y96.675 E0.02213
G1 X90.000 Y96.712 E0.02203
G1 X89.295 Y96.675 E0.02213
G1 X88.745 Y96.594 E0.01743
G1 X88.057 Y96.425 E0.02222
G1 X87.532 Y96.242 E0.01743
G1 X86.888 Y95.947 E0.02222
G1 X86.406 Y95.669 E0.01743
G1 X85.831 Y95.260 E0.02213
G1 X85.301 Y94.794 E0.02213
G1 X84.921 Y94.388 E0.01743
G1 X84.488 Y93.831 E0.02213
G1 X84.118 Y93.234 E0.02203
G1 X83.812 Y92.601 E0.02203
G1 X83.574 Y91.940 E0.02203
G1 X83.406 Y91.255 E0.02213
G1 X83.325 Y90.705 E0.01743
G1 X83.288 Y90.000 E0.02213
G1 X83.325 Y89.295 E0.02213
G1 X83.406 Y88.745 E0.01743
G1 X83.574 Y88.060 E0.02213
G1 X83.812 Y87.399 E0.02203
G1 X84.118 Y86.766 E0.02204
G1 X84.483 Y86.177 E0.02171
G1 X84.826 Y85.724 E0.01785
G1 X85.304 Y85.204 E0.02211
G1 X85.833 Y84.738 E0.02213
G1 X86.234 Y84.446 E0.01555
M204 S1250
G1 X86.013 Y84.141 F9000.000
M204 S800
;TYPE:External perimeter
G1 F1200.000
G1 X86.715 Y83.717 E0.02573
G1 X87.391 Y83.408 E0.02330
G1 X87.950 Y83.213 E0.01855
G1 X88.672 Y83.036 E0.02330
G1 X89.408 Y82.935 E0.02330
G1 X90.012 Y82.910 E0.01897
G1 X90.741 Y82.949 E0.02288
G1 X91.475 Y83.065 E0.02330
G1 X92.048 Y83.213 E0.01855
G1 X92.747 Y83.464 E0.02330
G1 X93.415 Y83.787 E0.02327
G1 X94.046 Y84.178 E0.02327
G1 X94.633 Y84.634 E0.02330
G1 X95.065 Y85.039 E0.01855
G1 X95.556 Y85.596 E0.02330
G1 X95.987 Y86.202 E0.02330
G1 X96.282 Y86.714 E0.01855
G1 X96.592 Y87.391 E0.02334
G1 X96.787 Y87.950 E0.01855
G1 X96.964 Y88.673 E0.02334
G1 X97.051 Y89.258 E0.01855
G1 X97.090 Y90.000 E0.02330
G1 X97.051 Y90.742 E0.02330
G1 X96.964 Y91.327 E0.01855
G1 X96.787 Y92.050 E0.02334
G1 X96.592 Y92.609 E0.01855
G1 X96.283 Y93.285 E0.02330
G1 X95.905 Y93.924 E0.02330
G1 X95.557 Y94.403 E0.01855
G1 X95.065 Y94.961 E0.02334
G1 X94.633 Y95.366 E0.01855
G1 X94.046 Y95.822 E0.02330
G1 X93.415 Y96.213 E0.02327
G1 X92.747 Y96.536 E0.02327
G1 X92.048 Y96.787 E0.02330
G1 X91.475 Y96.935 E0.01855
G1 X90.741 Y97.051 E0.02330
G1 X90.000 Y97.090 E0.02327
G1 X89.258 Y97.051 E0.02330
G1 X88.673 Y96.964 E0.01855
G1 X87.950 Y96.787 E0.02334
G1 X87.391 Y96.592 E0.01855
G1 X86.714 Y96.282 E0.02334
G1 X86.202 Y95.987 E0.01855
G1 X85.596 Y95.556 E0.02330
G1 X85.039 Y95.065 E0.02330
G1 X84.634 Y94.633 E0.01855
G1 X84.178 Y94.046 E0.02330
G1 X83.787 Y93.415 E0.02327
G1 X83.464 Y92.747 E0.02327
G1 X83.213 Y92.049 E0.02327
G1 X83.036 Y91.327 E0.02330
G1 X82.949 Y90.742 E0.01855
G1 X82.910 Y90.000 E0.02330
G1 X82.949 Y89.258 E0.02330
G1 X83.036 Y88.673 E0.01855
G1 X83.213 Y87.951 E0.02330
G1 X83.464 Y87.253 E0.02327
G1 X83.787 Y86.584 E0.02327
G1 X84.171 Y85.964 E0.02288
G1 X84.537 Y85.482 E0.01897
G1 X85.040 Y84.935 E0.02330
G1 X85.597 Y84.443 E0.02330
G1 X85.964 Y84.176 E0.01423
M204 S1250
G1 X86.372 Y84.318 F9000.000
G1 E-2.24000 F4200.000
;WIPE_START
G1 F7200.000
G1 X86.715 Y83.717 E-0.48792
G1 X87.391 Y83.408 E-0.41185
G1 X87.412 Y83.400 E-0.01223
;WIPE_END
G1 E-0.04800 F4200.000
G1 Z0.400 F9000.000
G1 X95.595 Y86.503
G1 Z0.200
G1 E3.20000 F2400.000
M204 S800
;TYPE:Solid infill
;WIDTH:0.421067
G1 F1200.000
G1 X94.204 Y85.136 E0.06131
G1 X93.669 Y84.721 E0.02130
G1 X93.097 Y84.366 E0.02116
G1 X92.759 Y84.203 E0.01179
G1 X95.798 Y87.242 E0.13512
G1 X95.979 Y87.638 E0.01369
G1 X96.150 Y88.129 E0.01636
G1 X91.872 Y83.851 E0.19024
G1 X91.341 Y83.712 E0.01725
G1 X91.172 Y83.686 E0.00537
G1 X96.321 Y88.834 E0.22895
G1 X96.400 Y89.448 E0.01945
G1 X90.552 Y83.600 E0.26004
G1 X89.989 Y83.572 E0.01772
G1 X96.428 Y90.011 E0.28634
G1 X96.402 Y90.519 E0.01600
G1 X89.475 Y83.593 E0.30800
G1 X89.004 Y83.656 E0.01495
G1 X96.346 Y90.998 E0.32647
G1 X96.256 Y91.443 E0.01428
G1 X88.557 Y83.744 E0.34239
G1 X88.128 Y83.850 E0.01388
G1 X96.150 Y91.872 E0.35672
G1 X96.012 Y92.269 E0.01321
G1 X87.731 Y83.988 E0.36822
M73 P4 R15
G1 X87.357 Y84.149 E0.01280
G1 X95.851 Y92.643 E0.37769
G1 X95.681 Y93.007 E0.01265
G1 X86.993 Y84.319 E0.38630
G1 X86.657 Y84.518 E0.01228
G1 X95.482 Y93.343 E0.39241
G1 X95.274 Y93.670 E0.01218
G1 X86.330 Y84.726 E0.39770
G1 X86.021 Y84.951 E0.01204
G1 X95.049 Y93.979 E0.40147
M73 P4 R14
G1 X94.799 Y94.264 E0.01192
G1 X85.736 Y85.201 E0.40304
G1 X85.456 Y85.456 E0.01190
G1 X94.544 Y94.545 E0.40413
G1 X94.269 Y94.804 E0.01190
G1 X85.200 Y85.735 E0.40325
G1 X84.954 Y86.024 E0.01193
G1 X93.973 Y95.043 E0.40107
G1 X93.672 Y95.277 E0.01198
G1 X84.723 Y86.328 E0.39793
G1 X84.518 Y86.657 E0.01221
G1 X93.342 Y95.482 E0.39239
G1 X93.005 Y95.678 E0.01230
G1 X84.322 Y86.995 E0.38611
G1 X84.147 Y87.356 E0.01259
G1 X92.644 Y95.853 E0.37783
G1 X92.265 Y96.008 E0.01289
G1 X83.992 Y87.735 E0.36787
M73 P5 R14
G1 X83.850 Y88.129 E0.01314
G1 X91.871 Y96.150 E0.35668
G1 X91.447 Y96.260 E0.01378
G1 X83.744 Y88.557 E0.34257
G1 X83.654 Y89.002 E0.01428
G1 X90.995 Y96.343 E0.32642
G1 X90.519 Y96.402 E0.01507
G1 X83.598 Y89.481 E0.30775
G1 X83.572 Y89.989 E0.01600
G1 X90.011 Y96.428 E0.28634
G1 X89.448 Y96.400 E0.01773
G1 X83.600 Y90.552 E0.26003
G1 X83.679 Y91.166 E0.01945
G1 X88.834 Y96.321 E0.22925
G1 X88.129 Y96.150 E0.02283
G1 X83.851 Y91.872 E0.19023
G1 X84.073 Y92.491 E0.02068
G1 X84.203 Y92.760 E0.00937
G1 X87.241 Y95.798 E0.13510
G1 X87.017 Y95.695 E0.00775
G1 X86.559 Y95.431 E0.01664
G1 X86.007 Y95.038 E0.02130
G1 X85.502 Y94.593 E0.02115
G1 X84.429 Y93.520 E0.04772
M204 S1250
; stop printing object tyckaStred.stl id:0 copy 0
M106 S84.15
;LAYER_CHANGE
;Z:0.35
;HEIGHT:0.15
;BEFORE_LAYER_CHANGE
G92 E0.0
;0.35


G1 E-2.24000 F4200.000
;WIPE_START
G1 F7200.000
G1 X85.502 Y94.593 E-0.84098
G1 X85.598 Y94.678 E-0.07102
;WIPE_END
G1 E-0.04800 F4200.000
G1 Z0.400 F9000.000
;AFTER_LAYER_CHANGE
;0.35
G1 X81.146 Y95.885
G1 Z0.350
G1 E3.20000 F2400.000
;TYPE:Skirt
;WIDTH:0.42
G1 X80.189 Y94.093 E0.04913
G1 X79.823 Y93.075 E0.02617
G1 X79.563 Y92.020 E0.02628
G1 X79.369 Y89.998 E0.04913
G1 X79.563 Y87.976 E0.04913
G1 X79.823 Y86.925 E0.02618
G1 X80.197 Y85.886 E0.02670
G1 X81.161 Y84.093 E0.04924
G1 X81.807 Y83.225 E0.02618
G1 X82.538 Y82.427 E0.02617
G1 X84.115 Y81.146 E0.04913
G1 X85.906 Y80.189 E0.04913
G1 X86.929 Y79.822 E0.02628
G1 X87.980 Y79.563 E0.02617
G1 X90.007 Y79.369 E0.04923
G1 X91.109 Y79.427 E0.02670
G1 X92.178 Y79.594 E0.02617
G1 X94.118 Y80.199 E0.04913
G1 X95.907 Y81.161 E0.04913
G1 X96.775 Y81.807 E0.02617
G1 X97.573 Y82.538 E0.02617
G1 X98.854 Y84.115 E0.04913
G1 X99.811 Y85.907 E0.04913
G1 X100.177 Y86.925 E0.02617
G1 X100.437 Y87.980 E0.02628
G1 X100.631 Y90.002 E0.04913
G1 X100.437 Y92.024 E0.04913
G1 X100.177 Y93.075 E0.02617
G1 X99.803 Y94.114 E0.02670
G1 X98.839 Y95.907 E0.04923
G1 X98.193 Y96.775 E0.02617
G1 X97.462 Y97.573 E0.02617
G1 X95.885 Y98.854 E0.04913
G1 X94.094 Y99.811 E0.04913
G1 X93.075 Y100.177 E0.02617
G1 X92.020 Y100.437 E0.02628
G1 X89.998 Y100.631 E0.04913
G1 X87.976 Y100.437 E0.04913
G1 X86.925 Y100.177 E0.02617
G1 X85.886 Y99.803 E0.02670
G1 X84.093 Y98.839 E0.04923
G1 X83.225 Y98.193 E0.02617
G1 X82.427 Y97.462 E0.02617
G1 X81.184 Y95.932 E0.04768
G1 X81.483 Y95.709 F9000.000
G1 F2400.000
G1 X80.546 Y93.970 E0.04778
G1 X80.185 Y92.968 E0.02576
G1 X79.933 Y91.950 E0.02536
G1 X79.746 Y90.000 E0.04737
G1 X79.933 Y88.050 E0.04737
G1 X80.185 Y87.032 E0.02536
G1 X80.545 Y86.030 E0.02576
G1 X81.473 Y84.305 E0.04737
G1 X82.099 Y83.464 E0.02537
G1 X82.805 Y82.694 E0.02526
G1 X84.325 Y81.459 E0.04737
G1 X86.049 Y80.538 E0.04727
G1 X87.036 Y80.184 E0.02536
G1 X88.054 Y79.932 E0.02536
G1 X90.004 Y79.746 E0.04737
G1 X91.950 Y79.933 E0.04728
G1 X92.968 Y80.185 E0.02536
G1 X93.970 Y80.545 E0.02576
G1 X95.695 Y81.473 E0.04737
G1 X96.536 Y82.099 E0.02536
G1 X97.306 Y82.805 E0.02526
G1 X98.541 Y84.325 E0.04737
G1 X99.462 Y86.049 E0.04727
G1 X99.816 Y87.036 E0.02536
G1 X100.068 Y88.054 E0.02536
G1 X100.254 Y90.000 E0.04727
G1 X100.068 Y91.946 E0.04727
G1 X99.817 Y92.964 E0.02536
G1 X99.462 Y93.951 E0.02536
G1 X98.541 Y95.674 E0.04727
G1 X97.306 Y97.195 E0.04737
G1 X96.536 Y97.901 E0.02526
G1 X95.695 Y98.527 E0.02536
G1 X93.970 Y99.454 E0.04737
G1 X92.968 Y99.815 E0.02576
G1 X91.950 Y100.067 E0.02536
G1 X90.000 Y100.254 E0.04737
G1 X88.055 Y100.068 E0.04727
G1 X87.036 Y99.817 E0.02536
G1 X86.049 Y99.462 E0.02536
G1 X84.326 Y98.541 E0.04727
G1 X82.805 Y97.306 E0.04737
G1 X82.099 Y96.536 E0.02526
G1 X81.519 Y95.757 E0.02349
G1 X81.815 Y95.517 F9000.000
G1 F2400.000
G1 X80.887 Y93.808 E0.04703
G1 X80.544 Y92.853 E0.02454
G1 X80.302 Y91.871 E0.02445
G1 X80.123 Y89.998 E0.04551
G1 X80.303 Y88.125 E0.04552
G1 X80.545 Y87.143 E0.02445
G1 X80.894 Y86.174 E0.02491
G1 X81.785 Y84.517 E0.04551
G1 X82.388 Y83.706 E0.02445
G1 X83.072 Y82.961 E0.02445
G1 X84.532 Y81.774 E0.04551
G1 X86.192 Y80.887 E0.04551
M73 P6 R14
G1 X87.143 Y80.545 E0.02445
G1 X88.129 Y80.302 E0.02454
G1 X90.006 Y80.123 E0.04560
G1 X91.030 Y80.177 E0.02482
G1 X92.029 Y80.334 E0.02445
G1 X93.826 Y80.894 E0.04551
G1 X95.483 Y81.785 E0.04551
G1 X96.294 Y82.388 E0.02445
G1 X97.039 Y83.072 E0.02445
G1 X98.226 Y84.532 E0.04551
G1 X99.113 Y86.192 E0.04551
G1 X99.455 Y87.143 E0.02445
G1 X99.698 Y88.129 E0.02454
G1 X99.877 Y90.002 E0.04551
G1 X99.697 Y91.875 E0.04551
G1 X99.455 Y92.856 E0.02445
G1 X99.106 Y93.826 E0.02491
G1 X98.215 Y95.483 E0.04551
G1 X97.612 Y96.294 E0.02445
G1 X96.928 Y97.039 E0.02445
G1 X95.468 Y98.226 E0.04551
